X:1
T:Tied a dicsőség
C:Unknown
Z:Public Domain
L:1/8
M:4/4
K:A
V:1 treble 
%%MIDI program 52
V:1
 z4 EEEC |:"A" E4 C4- | C2 z2 C3 E |"C#m" E4 C4- | C4 z2 CE |"D" E2 D4 DC |"Bm" C2 B,4 B,>C | %7
w: Ti- ed a di-|cső- ség,|* és i-|má- dás,|* Fel- e-|mel- jük ke- ze-|in- ket, így di-|
"E" D2 C2 D2 EE- |1"E7" E4 EEEC :|2"E" E2 E2 A G3 |:"A" A6 GA | B2 A G3 A2 |"F#m" A6 GA | %13
w: csér- jük szent ne- ved!|* Ti- ed a di|* Ó ha- tal-|mas, ke- zed|nagy cso- dá- kat|tesz, ve- led|
 B2 A2 G A3 |"D" F8 |"Bm" z4 z2 FA |"E" A2 G2 G F3 |"E7" E2 E2 A G3 :|"A" A8- | A4 z4 |] %20
w: sen- ki nem ér|fel,|ve- led|sen- ki nem ér|fel! Ó, ha- tal-|mas!||

